svgs/regular/circle-i.svg

<svg xmlns="http://www.w3.org/2000/svg" viewBox="0 0 512 512"><!--! Font Awesome Pro 6.4.2 by @fontawesome - https://fontawesome.com License - https://fontawesome.com/license (Commercial License) Copyright 2023 Fonticons, Inc. --><path d="M256 48a208 208 0 1 1 0 416 208 208 0 1 1 0-416zm0 464A256 256 0 1 0 256 0a256 256 0 1 0 0 512zM184 128c-13.3 0-24 10.7-24 24s10.7 24 24 24h48V336H184c-13.3 0-24 10.7-24 24s10.7 24 24 24H328c13.3 0 24-10.7 24-24s-10.7-24-24-24H280V176h48c13.3 0 24-10.7 24-24s-10.7-24-24-24H256 184z"/></svg>

<svg xmlns="http://www.w3.org/2000/svg" viewBox="0 0 512 512"><!--! Font Awesome Pro 6.0.0-alpha3 by @fontawesome - https://fontawesome.com License - https://fontawesome.com/license (Commercial License) --><path d="M256 0C114.6 0 0 114.6 0 256s114.6 256 256 256s256-114.6 256-256S397.4 0 256 0zM256 464c-114.7 0-208-93.31-208-208S141.3 48 256 48s208 93.31 208 208S370.7 464 256 464zM328 176C341.3 176 352 165.3 352 152S341.3 128 328 128h-144C170.8 128 160 138.8 160 152S170.8 176 184 176h48v160h-48C170.8 336 160 346.8 160 360S170.8 384 184 384h144c13.25 0 24-10.75 24-24s-10.75-24-24-24h-48v-160H328z"/></svg>
